!!!COM: Vivaldi, Antonio Lucio
!!!CDT: 1678/03/04-1741/08/28
!!!OPR: 12 sonatas for two violins and basso continuo
!!!OTL: Sonata in B minor, op. @{OPS}, no. @{ONM} (@{SCT})
!!!OPS: 1
!!!ONM: 11
!!!OMV: 2. Corrente
!!!SCT: RV 79
!!!SCA: Antonio Vivaldi: Thematisch-systematisches Verzeichnis seiner Werke (Ryom-Verzeichnis)
!!!OMD: Allegro
!!!key: b
**kern	**dynam	**fb	**kern	**dynam	**kern	**dynam
*part3	*	*	*part2	*	*part1	*
*staff3	*	*	*staff2	*	*staff1	*
*ICstr&ICklav	*	*	*ICstr	*	*ICstr	*
*Icello&Icemba	*	*	*Ivioln	*	*Ivioln	*
*	*	*	*I#2	*	*I#1	*
*I"Violoncello\nContinuo	*	*	*I"Violin 2	*	*I"Violin 1	*
*I'bc	*	*	*I'v2	*	*I'v1	*
*>[A,A1,A,A2,B,B]	*>[A,A1,A,A2,B,B]	*>[A,A1,A,A2,B,B]	*>[A,A1,A,A2,B,B]	*>[A,A1,A,A2,B,B]	*>[A,A1,A,A2,B,B]	*>[A,A1,A,A2,B,B]
*>norep[A,A2,B]	*>norep[A,A2,B]	*>norep[A,A2,B]	*>norep[A,A2,B]	*>norep[A,A2,B]	*>norep[A,A2,B]	*>norep[A,A2,B]
*>A	*>A	*>A	*>A	*>A	*>A	*>A
*clefF4	*	*	*clefG2	*	*clefG2	*
*k[f#c#]	*	*	*k[f#c#]	*	*k[f#c#]	*
*b:	*	*	*b:	*	*b:	*
*M3/8	*	*	*M3/8	*	*M3/8	*
*MM120	*	*	*MM120	*	*MM120	*
8BB/	.	.	8dd\	.	8ff#y\	.
=1	=1	=1	=1	=1	=1	=1
4BB/	.	.	4dd\	.	4ff#y\	.
8r	.	.	8r	.	8r	.
=2	=2	=2	=2	=2	=2	=2
8BB/	.	.	8dd\	.	16bb\LL	.
.	.	.	.	.	16ff#y\	.
8r	.	.	8r	.	16dd\	.
.	.	.	.	.	16b\	.
8BB/	.	.	8dd\	.	16ff#y\	.
.	.	.	.	.	16bb\JJ	.
=3	=3	=3	=3	=3	=3	=3
8F#y\	.	.	8cc#y\	.	16aa#X\LL	.
.	.	.	.	.	16ff#y\	.
4AA#X/	.	6	4ff#y\	.	16cc#y\	.
.	.	.	.	.	16a#X\	.
.	.	.	.	.	16cc#y\	.
.	.	.	.	.	16ff#y\JJ	.
=4	=4	=4	=4	=4	=4	=4
8BB/	.	.	8dd\	.	16b\LL	.
.	.	.	.	.	16dd\	.
8r	.	.	8r	.	16ff#y\	.
.	.	.	.	.	16bb\	.
8BB/	.	.	8b\	.	16ff#y\	.
.	.	.	.	.	16dd\JJ	.
=5	=5	=5	=5	=5	=5	=5
8F#y\	.	.	8a#X/	.	16cc#y\LL	.
.	.	.	.	.	16a#X\	.
4AA#X/	.	6	4cc#y\	.	16f#y\	.
.	.	.	.	.	16ee\	.
.	.	.	.	.	16dd\	.
.	.	.	.	.	16cc#y\JJ	.
=6	=6	=6	=6	=6	=6	=6
8BB/L	.	.	8f#y/	.	16dd\LL	.
.	.	.	.	.	16ff#y\	.
8F#y/	.	.	8r	.	16dd\	.
.	.	.	.	.	16ff#y\	.
8AA#X/J	.	6	8ff#y\	.	16cc#y\	.
.	.	.	.	.	16ff#y\JJ	.
=7	=7	=7	=7	=7	=7	=7
8BB/L	.	.	8ff#y\	.	16dd\LL	.
.	.	.	.	.	16ff#y\	.
8F#y/	.	.	8r	.	16dd\	.
.	.	.	.	.	16ff#y\	.
8AA#X/J	.	6	8ff#y\	.	16cc#y\	.
.	.	.	.	.	16ff#y\JJ	.
!!LO:LB:g=original
=8	=8	=8	=8	=8	=8	=8
8BB/L	.	.	8ff#y\	.	16dd\LL	.
.	.	.	.	.	16ff#y\	.
8F#y/	.	.	8r	.	16dd\	.
.	.	.	.	.	16ff#y\	.
8AA#X/J	.	6	8ff#y\	.	16cc#y\	.
.	.	.	.	.	16ff#y\JJ	.
=9	=9	=9	=9	=9	=9	=9
8BB/	.	.	8ff#y\L	.	16dd\LL	.
.	.	.	.	.	16ff#y\	.
4G\	.	6	8b\	.	16ee\	.
.	.	.	.	.	16dd\	.
.	.	.	8ee\J	.	16cc#y\	.
.	.	.	.	.	16b\JJ	.
=10	=10	=10	=10	=10	=10	=10
8.F#y\L	.	#	4a#X/	.	8ff#y\L	.
.	.	.	.	.	8f#y\J	.
16G\L	.	.	.	.	.	.
16F#y\	.	.	8r	.	8r	.
16E\JJ	.	.	.	.	.	.
=11	=11	=11	=11	=11	=11	=11
8D/L	.	6	8b/L	.	(16b\LL	.
.	.	.	.	.	16dd\	.
8BB/	.	.	8d/	.	16ff#y\)	.
.	.	.	.	.	16bb\	.
8BB/J	.	.	8d/J	.	16ff#y\	.
.	.	.	.	.	16dd\JJ	.
=12	=12	=12	=12	=12	=12	=12
8BB/L	.	.	8d/L	.	(16b\LL	.
.	.	.	.	.	16dd\	.
8BB/	.	.	8d/	.	16ff#y\)	.
.	.	.	.	.	16dd\	.
8BB/J	.	.	8d/J	.	16cc#y\	.
.	.	.	.	.	16b\JJ	.
=13	=13	=13	=13	=13	=13	=13
8C#y/L	.	6#/ 5nr	8e/L	.	(16a#y\LL	.
.	.	.	.	.	16cc#y\	.
8C#y/	.	.	8e/	.	16ee\)	.
.	.	.	.	.	16gg\	.
8C#y/J	.	.	8e/J	.	16ee\	.
.	.	.	.	.	16cc#y\JJ	.
=14	=14	=14	=14	=14	=14	=14
8C#y/L	.	.	8e/L	.	(16a#y\LL	.
.	.	.	.	.	16cc#y\	.
8C#y/	.	.	8e/	.	16ee\)	.
.	.	.	.	.	16gg\	.
8C#y/J	.	.	8e/J	.	16ff#y\	.
.	.	.	.	.	16ee\JJ	.
=15	=15	=15	=15	=15	=15	=15
8D\L	.	6	8f#y/L	.	(16b\LL	.
.	.	.	.	.	16dd\	.
8D\	.	.	8f#y/	.	16ff#y\)	.
.	.	.	.	.	16bb\	.
8D\J	.	.	8f#y/J	.	16ff#y\	.
.	.	.	.	.	16dd\JJ	.
=16	=16	=16	=16	=16	=16	=16
8D\L	.	.	8f#y/L	.	(16b\LL	.
.	.	.	.	.	16dd\	.
8D\	.	.	8f#y/	.	16ff#y\)	.
.	.	.	.	.	16bb\	.
8D\J	.	.	8f#y/J	.	16ff#y\	.
.	.	.	.	.	16dd\JJ	.
!!LO:LB:g=original
=17	=17	=17	=17	=17	=17	=17
8E\L	.	.	8g/L	.	(16b\LL	.
.	.	.	.	.	16ee\	.
8E\	.	.	8g/	.	16gg\)	.
.	.	.	.	.	16bb\	.
8E\J	.	.	8g/J	.	16gg\	.
.	.	.	.	.	16ee\JJ	.
=18	=18	=18	=18	=18	=18	=18
8E\L	.	.	8g/L	.	(16b\LL	.
.	.	.	.	.	16ee\	.
8E\	.	.	8g/	.	16gg\)	.
.	.	.	.	.	16bb\	.
8E\J	.	.	8g/J	.	16gg\	.
.	.	.	.	.	16ee\JJ	.
=19	=19	=19	=19	=19	=19	=19
8E#X\L	.	7 5	8g#X/L	.	(16b\LL	.
.	.	.	.	.	16dd\	.
8E#y\	.	.	8g#y/	.	16cc#y\)	.
.	.	.	.	.	16b\	.
8E#y\J	.	.	8g#y/J	.	16cc#y\	.
.	.	.	.	.	16dd\JJ	.
=20	=20	=20	=20	=20	=20	=20
8E#y\L	.	.	8g#X/L	.	(16b/LL	.
.	.	.	.	.	16g#X/	.
8E#y\	.	.	8g#y/	.	16e#X/)	.
.	.	.	.	.	16dd/	.
8E#y\J	.	.	8g#y/J	.	16cc#y/	.
.	.	.	.	.	16b/JJ	.
=21	=21	=21	=21	=21	=21	=21
4F#y\	.	.	4c#y/	.	8a\L	.
.	.	.	.	.	16ff#y\L	.
.	.	.	.	.	16gg#X\J	.
8r	.	.	8r	.	8ff#y\J	.
=22	=22	=22	=22	=22	=22	=22
8A\	.	6	8cc#y\	.	8A/L	.
8r	.	.	8r	.	16ff#y\L	.
.	.	.	.	.	16gg#X\J	.
8r	.	.	8r	.	8ff#y\J	.
=23	=23	=23	=23	=23	=23	=23
8B\	.	.	8dd\	.	8B/L	.
8r	.	.	8r	.	16ff#y\L	.
.	.	.	.	.	16gg#X\J	.
8r	.	.	8r	.	8ff#y\J	.
=24	=24	=24	=24	=24	=24	=24
8c#y\	.	#	8e#X/	.	8c#y/L	.
8r	.	.	8r	.	16ff#y\L	.
.	.	.	.	.	16gg#X\J	.
8r	.	.	8r	.	8ff#y\J	.
=25	=25	=25	=25	=25	=25	=25
8d\	.	.	8f#y/	.	8d/L	.
8r	.	.	8r	.	16ff#y\L	.
.	.	.	.	.	16gg#X\J	.
8r	.	.	8r	.	8ff#y\J	.
=26	=26	=26	=26	=26	=26	=26
8A\	.	6	8cc#y\	.	8A/L	.
8r	.	.	8r	.	16ff#y\L	.
.	.	.	.	.	16gg#X\J	.
8r	.	.	8r	.	8ff#y\J	.
!!LO:LB:g=original
=27	=27	=27	=27	=27	=27	=27
8B\	.	.	8dd\	.	8B/L	.
8r	.	.	8r	.	16ff#y\L	.
.	.	.	.	.	16gg#X\J	.
8r	.	.	8r	.	8ff#y\J	.
=28	=28	=28	=28	=28	=28	=28
8c#y\	.	#	8g#X/	.	16c#y/LL	.
.	.	.	.	.	16ff#y\	.
4C#y/	.	.	4e#X/	.	16gg#X\	.
.	.	.	.	.	16ff#y\	.
.	.	.	.	.	16cc#y\	.
.	.	.	.	.	16b\JJ	.
=29	=29	=29	=29	=29	=29	=29
8F#y\L	.	.	8f#y/L	.	(16a\LL	.
.	.	.	.	.	16cc#y\	.
8F#y\	.	.	8a/	.	16ff#y\)	.
.	.	.	.	.	16aa\	.
8F#y\J	.	.	8a/J	.	16ff#y\	.
.	.	.	.	.	16cc#y\JJ	.
=30	=30	=30	=30	=30	=30	=30
8F#y\L	.	.	8a/L	.	(16a\LL	.
.	.	.	.	.	16cc#y\	.
8F#y\	.	.	8a/	.	16ff#y\)	.
.	.	.	.	.	16cc#y\	.
8F#y\J	.	.	8a/J	.	16a\	.
.	.	.	.	.	16cc#y\JJ	.
=31	=31	=31	=31	=31	=31	=31
*>A1	*>A1	*>A1	*>A1	*>A1	*>A1	*>A1
4F#y\	.	.	4a/	.	4f#y/	.
=32:|!	=32:|!	=32:|!	=32:|!	=32:|!	=32:|!	=32:|!
*>A2	*>A2	*>A2	*>A2	*>A2	*>A2	*>A2
4.F#y\	.	.	4.a/	.	4.f#y/	.
=32!|:	=32!|:	=32!|:	=32!|:	=32!|:	=32!|:	=32!|:
*>B	*>B	*>B	*>B	*>B	*>B	*>B
8F#y\L	.	.	8a/L	.	(16a\LL	.
.	.	.	.	.	16cc#y\	.
8F#y\	.	.	8a/	.	16ff#y\)	.
.	.	.	.	.	16aa\	.
8F#y\J	.	.	8a/J	.	16ff#y\	.
.	.	.	.	.	16cc#y\JJ	.
=33	=33	=33	=33	=33	=33	=33
8F#y\L	.	.	8a/L	.	(16a\LL	.
.	.	.	.	.	16cc#y\	.
8F#y\	.	.	8a/	.	16ff#y\)	.
.	.	.	.	.	16aa\	.
8F#y\J	.	.	8a/J	.	16ff#y\	.
.	.	.	.	.	16cc#y\JJ	.
=34	=34	=34	=34	=34	=34	=34
8c#y\L	.	6#/ 5nr	8g/L	.	(16a#X\LL	.
.	.	.	.	.	16cc#y\	.
8c#y\	.	.	8g/	.	16ee\)	.
.	.	.	.	.	16gg\	.
8c#y\J	.	.	8g/J	.	16ee\	.
.	.	.	.	.	16cc#y\JJ	.
!!LO:PB:g=original
=35	=35	=35	=35	=35	=35	=35
8c#y\L	.	.	8g/L	.	(16a#X\LL	.
.	.	.	.	.	16cc#y\	.
8c#y\	.	.	8g/	.	16ee\)	.
.	.	.	.	.	16gg\	.
8c#y\J	.	.	8g/J	.	16ff#y\	.
.	.	.	.	.	16ee\JJ	.
=36	=36	=36	=36	=36	=36	=36
8d\L	.	6	8f#y/L	.	(16d/LL	.
.	.	.	.	.	16f#y/	.
8d\	.	.	8f#y/	.	16b/)	.
.	.	.	.	.	16dd/	.
8d\J	.	.	8f#y/J	.	16b/	.
.	.	.	.	.	16f#y/JJ	.
=37	=37	=37	=37	=37	=37	=37
8d\L	.	.	8b\L	.	(16d/LL	.
.	.	.	.	.	16f#y/	.
8d\	.	.	8b\	.	16b/)	.
.	.	.	.	.	16dd/	.
8d\J	.	.	8b\J	.	16b/	.
.	.	.	.	.	16f#y/JJ	.
=38	=38	=38	=38	=38	=38	=38
8F#y\L	.	6#/ 5nr	8ccn\L	.	(16d#X/LL	.
.	.	.	.	.	16f#y/	.
8F#y\	.	.	8cc\	.	16a/)	.
.	.	.	.	.	16ccn/	.
8F#y\J	.	.	8cc\J	.	16a/	.
.	.	.	.	.	16f#y/JJ	.
=39	=39	=39	=39	=39	=39	=39
8F#y\L	.	.	8ccn\L	.	(16d#X/LL	.
.	.	.	.	.	16f#y/	.
8F#y\	.	.	8cc\	.	16a/)	.
.	.	.	.	.	16ccn/	.
8F#y\J	.	.	8cc\J	.	16b/	.
.	.	.	.	.	16a/JJ	.
=40	=40	=40	=40	=40	=40	=40
8G\L	.	6	8b\L	.	(16e/LL	.
.	.	.	.	.	16g/	.
8G\	.	.	8b\	.	16b/)	.
.	.	.	.	.	16ee/	.
8G\J	.	.	8b\J	.	16b/	.
.	.	.	.	.	16g/JJ	.
=41	=41	=41	=41	=41	=41	=41
8G\L	.	.	8b\L	.	(16e\LL	.
.	.	.	.	.	16g\	.
8G\	.	.	8b\	.	16b\)	.
.	.	.	.	.	16ee\	.
8G\J	.	.	8b\J	.	16gg\	.
.	.	.	.	.	16ee\JJ	.
=42	=42	=42	=42	=42	=42	=42
8G#X\L	.	7nr 5	8b\L	.	(16ffn\LL	.
.	.	.	.	.	16ee\	.
8G#y\	.	.	8b\	.	16ff\)	.
.	.	.	.	.	16dd\	.
8G#y\J	.	.	8b\J	.	16b\	.
.	.	.	.	.	16dd\JJ	.
=43	=43	=43	=43	=43	=43	=43
8G#X\L	.	.	8b\L	.	(16ffn\LL	.
.	.	.	.	.	16ee\	.
8G#y\	.	.	8b\	.	16ff\)	.
.	.	.	.	.	16dd\	.
8G#y\J	.	.	8b\J	.	16b\	.
.	.	.	.	.	16dd\JJ	.
!!LO:LB:g=original
=44	=44	=44	=44	=44	=44	=44
8A\L	.	n	8e/L	.	16ccn\LL	.
.	.	.	.	.	16e\	.
8A\	.	.	8e/	.	(16a\	.
.	.	.	.	.	16ccn\	.
8A\J	.	.	8e/J	.	16ee\)	.
.	.	.	.	.	16aa\JJ	.
=45	=45	=45	=45	=45	=45	=45
8G\L	.	6 4#|	8e/L	.	16cc#X\LL	.
.	.	.	.	.	16ee\	.
8G\	.	.	8e/	.	(16ee\	.
.	.	.	.	.	16cc#y\	.
8G\J	.	.	8e/J	.	16a\)	.
.	.	.	.	.	16cc#y\JJ	.
=46	=46	=46	=46	=46	=46	=46
8F#y\L	.	6	8a/L	.	16dd\LL	.
.	.	.	.	.	16a\	.
8F#y\	.	.	8a/	.	(16dd\	.
.	.	.	.	.	16ff#y\	.
8F#y\J	.	.	8a/J	.	16aa\)	.
.	.	.	.	.	16ff#y\JJ	.
=47	=47	=47	=47	=47	=47	=47
8B\L	.	#	8f#y/L	.	16dd#X\LL	.
.	.	.	.	.	16ff#y\	.
8B\	.	.	8f#y/	.	(16ff#y\	.
.	.	.	.	.	16dd#X\	.
8A\J	.	4#| 2	8f#y/J	.	16b\)	.
.	.	.	.	.	16dd#X\JJ	.
=48	=48	=48	=48	=48	=48	=48
8G#X\L	.	6	8b\L	.	16ee\LL	.
.	.	.	.	.	16b\	.
8G#y\	.	.	8b\	.	(16ee\	.
.	.	.	.	.	16gg#X\	.
8G#y\J	.	.	8b\J	.	16bb\)	.
.	.	.	.	.	16gg#X\JJ	.
=49	=49	=49	=49	=49	=49	=49
8c#y\L	.	#	8g#X/L	.	16ee#X\LL	.
.	.	.	.	.	16gg#X\	.
8c#y\	.	.	8g#y/	.	(16gg#y\	.
.	.	.	.	.	16ee#X\	.
8E#X\J	.	6 5	8g#y/J	.	16cc#y\)	.
.	.	.	.	.	16b\JJ	.
=50	=50	=50	=50	=50	=50	=50
4F#y\	.	.	4c#y/	.	8a\L	.
.	.	.	.	.	16aa\L	.
.	.	.	.	.	16bb\J	.
8r	.	.	8r	.	8aa\J	.
=51	=51	=51	=51	=51	=51	=51
8d#X\	.	6 5	8ff#y\	.	8d#X/L	.
8r	.	.	8r	.	16aa\L	.
.	.	.	.	.	16bb\J	.
8r	.	.	8r	.	8aa\J	.
=52	=52	=52	=52	=52	=52	=52
8e\	.	.	8b\	.	8e/L	.
8r	.	.	8r	.	16ggn\L	.
.	.	.	.	.	16aa\J	.
8r	.	.	8r	.	8gg\J	.
!!LO:LB:g=original
=53	=53	=53	=53	=53	=53	=53
8c#y\	.	6 5	8ee\	.	8c#y/L	.
8r	.	.	8r	.	16gg\L	.
.	.	.	.	.	16aa\J	.
8r	.	.	8r	.	8gg\J	.
=54	=54	=54	=54	=54	=54	=54
8dn\	.	.	8a/	.	8d/L	.
8r	.	.	8r	.	16ff#y\L	.
.	.	.	.	.	16gg\J	.
8r	.	.	8r	.	8ff#y\J	.
=55	=55	=55	=55	=55	=55	=55
8B\	.	6 5	8dd\	.	8B/L	.
8r	.	.	8r	.	16ff#y\L	.
.	.	.	.	.	16gg\J	.
8r	.	.	8r	.	8ff#y\J	.
=56	=56	=56	=56	=56	=56	=56
8c#y\	.	#	8g#X/	.	8c#y/L	.
8r	.	.	8r	.	16ee\L	.
.	.	.	.	.	16ff#y\J	.
8r	.	.	8r	.	8ee\J	.
=57	=57	=57	=57	=57	=57	=57
8A#X\	.	6 5	8cc#y\	.	8A#X/L	.
8r	.	.	8r	.	16ee\L	.
.	.	.	.	.	16ff#y\J	.
8r	.	.	8r	.	8ee\J	.
=58	=58	=58	=58	=58	=58	=58
8B\L	.	.	8f#y/L	.	(16dd\LL	.
.	.	.	.	.	16ff#y\	.
8B\	.	.	8f#y/	.	16bb\)	.
.	.	.	.	.	16ff#y\	.
8B\J	.	.	8f#y/J	.	16dd\	.
.	.	.	.	.	16ff#y\JJ	.
=59	=59	=59	=59	=59	=59	=59
8B\L	.	.	8f#y/L	.	(16dd\LL	.
.	.	.	.	.	16ff#y\	.
8B\	.	.	8f#y/	.	16bb\)	.
.	.	.	.	.	16ff#y\	.
8B\J	.	.	8f#y/J	.	16dd\	.
.	.	.	.	.	16ff#y\JJ	.
=60	=60	=60	=60	=60	=60	=60
8An\L	.	6	8f#y/L	.	(16cc#y\LL	.
.	.	.	.	.	16ff#y\	.
8A\	.	.	8f#y/	.	16aa\)	.
.	.	.	.	.	16ff#y\	.
8A\J	.	.	8f#y/J	.	16cc#y\	.
.	.	.	.	.	16ff#y\JJ	.
=61	=61	=61	=61	=61	=61	=61
8A\L	.	.	8f#y/L	.	(16cc#y\LL	.
.	.	.	.	.	16ff#y\	.
8A\	.	.	8f#y/	.	16aa\)	.
.	.	.	.	.	16ff#y\	.
8A\J	.	.	8f#y/J	.	16cc#y\	.
.	.	.	.	.	16ff#y\JJ	.
!!LO:LB:g=original
=62	=62	=62	=62	=62	=62	=62
8G\L	.	6	8g/L	.	(16b\LL	.
.	.	.	.	.	16ee\	.
8G\	.	.	8g/	.	16gg\)	.
.	.	.	.	.	16ee\	.
8G\J	.	.	8g/J	.	16b\	.
.	.	.	.	.	16ee\JJ	.
=63	=63	=63	=63	=63	=63	=63
8E\L	.	.	8g/L	.	(16b\LL	.
.	.	.	.	.	16ee\	.
8E\	.	.	8g/	.	16gg\)	.
.	.	.	.	.	16ee\	.
8E\J	.	.	8g/J	.	16b\	.
.	.	.	.	.	16ee\JJ	.
=64	=64	=64	=64	=64	=64	=64
4F#y\	.	#	4f#y/	.	(16a#X/LL	.
.	.	.	.	.	16g#X/	.
.	.	.	.	.	16f#y/)	.
.	.	.	.	.	16b/	.
8r	.	.	8r	.	16cc#y/	.
.	.	.	.	.	16dd/JJ	.
=65	=65	=65	=65	=65	=65	=65
8d\L	.	6	8f#y/L	.	16d/LL	.
.	.	.	.	.	16b/	.
8d\	.	.	8f#y/	.	16d/	.
.	.	.	.	.	16b/	.
8d\J	.	.	8f#y/J	.	16d/	.
.	.	.	.	.	16b/JJ	.
=66	=66	=66	=66	=66	=66	=66
8e\L	.	.	8g/L	.	16e/LL	.
.	.	.	.	.	16b/	.
8e\	.	.	8g/	.	16e/	.
.	.	.	.	.	16b/	.
8e\J	.	.	8g/J	.	16e/	.
.	.	.	.	.	16b/JJ	.
=67	=67	=67	=67	=67	=67	=67
8f#y\L	.	#	8A#X/L	.	16f#y/LL	.
.	.	.	.	.	16b/	.
8f#y\	.	.	8A#y/	.	16f#y/	.
.	.	.	.	.	16b/	.
8f#y\J	.	.	8A#y/J	.	16f#y/	.
.	.	.	.	.	16b/JJ	.
=68	=68	=68	=68	=68	=68	=68
8g\L	.	.	8B/L	.	16g/LL	.
.	.	.	.	.	16b/	.
8g\	.	.	8B/	.	16g/	.
.	.	.	.	.	16b/	.
8g\J	.	.	8B/J	.	16g/	.
.	.	.	.	.	16b/JJ	.
=69	=69	=69	=69	=69	=69	=69
8d\L	.	6	8f#y/L	.	16d/LL	.
.	.	.	.	.	16b/	.
8d\	.	.	8f#y/	.	16d/	.
.	.	.	.	.	16b/	.
8d\J	.	.	8f#y/J	.	16d/	.
.	.	.	.	.	16b/JJ	.
=70	=70	=70	=70	=70	=70	=70
8e\L	.	.	8g/L	.	16e/LL	.
.	.	.	.	.	16b/	.
8e\	.	.	8g/	.	16e/	.
.	.	.	.	.	16b/	.
8e\J	.	.	8g/J	.	16e/	.
.	.	.	.	.	16b/JJ	.
!!LO:LB:g=original
=71	=71	=71	=71	=71	=71	=71
8f#y\L	.	#	8c#y/L	.	16f#y/LL	.
.	.	.	.	.	16a#X/	.
8f#y\	.	.	8c#y/	.	16f#y/	.
.	.	.	.	.	16a#X/	.
8f#y\J	.	.	8c#y/J	.	16f#y/	.
.	.	.	.	.	16a#X/JJ	.
=72	=72	=72	=72	=72	=72	=72
4B\	.	.	4B/	.	8.B/L	.
.	.	.	.	.	16b/L	p
8r	.	.	8r	.	16cc#y/	.
.	.	.	.	.	16dd/JJ	.
=73	=73	=73	=73	=73	=73	=73
8d\L	p	6	8f#y/L	p	16d/LL	.
.	.	.	.	.	16b/	.
8d\	.	.	8f#y/	.	16d/	.
.	.	.	.	.	16b/	.
8d\J	.	.	8f#y/J	.	16d/	.
.	.	.	.	.	16b/JJ	.
=74	=74	=74	=74	=74	=74	=74
8e\L	.	.	8g/L	.	16e/LL	.
.	.	.	.	.	16b/	.
8e\	.	.	8g/	.	16e/	.
.	.	.	.	.	16b/	.
8e\J	.	.	8g/J	.	16e/	.
.	.	.	.	.	16b/JJ	.
=75	=75	=75	=75	=75	=75	=75
8f#y\L	.	#	8A#X/L	.	16f#y/LL	.
.	.	.	.	.	16b/	.
8f#y\	.	.	8A#y/	.	16f#y/	.
.	.	.	.	.	16b/	.
8f#y\J	.	.	8A#y/J	.	16f#y/	.
.	.	.	.	.	16b/JJ	.
=76	=76	=76	=76	=76	=76	=76
8g\L	.	.	8B/L	.	16g/LL	.
.	.	.	.	.	16b/	.
8g\	.	.	8B/	.	16g/	.
.	.	.	.	.	16b/	.
8g\J	.	.	8B/J	.	16g/	.
.	.	.	.	.	16b/JJ	.
=77	=77	=77	=77	=77	=77	=77
8d\L	.	6	8f#y/L	.	16d/LL	.
.	.	.	.	.	16b/	.
8d\	.	.	8f#y/	.	16d/	.
.	.	.	.	.	16b/	.
8d\J	.	.	8f#y/J	.	16d/	.
.	.	.	.	.	16b/JJ	.
=78	=78	=78	=78	=78	=78	=78
8e\L	.	.	8g/L	.	16e/LL	.
.	.	.	.	.	16b/	.
8e\	.	.	8g/	.	16e/	.
.	.	.	.	.	16b/	.
8e\J	.	.	8g/J	.	16e/	.
.	.	.	.	.	16b/JJ	.
=79	=79	=79	=79	=79	=79	=79
8f#y\L	.	#	8c#y/L	.	16f#y/LL	.
.	.	.	.	.	16a#X/	.
8f#y\	.	.	8c#y/	.	16f#y/	.
.	.	.	.	.	16a#X/	.
8f#y\J	.	.	8c#y/J	.	16f#y/	.
.	.	.	.	.	16a#X/JJ	.
=80	=80	=80	=80	=80	=80	=80
4.B\;	.	.	4.B/;	.	4.B/;	.
=:|!	=:|!	=:|!	=:|!	=:|!	=:|!	=:|!
*-	*-	*-	*-	*-	*-	*-
!!!SMS: RV 79 / Estienne Roger (No. 363), Amsterdam [facs.]
!!!ENC: Fran Bennion   rev. 05/19/21 E Correia
!!!END: 2004/11/01
!!!ONB: Converted from MuseData with musedata2hum on Sat May 11 12:01:57 2024
!!!YEM: (C) 2004, 2019 Center for Computer Assisted Research in the Humanities
!!!system-decoration: [(s1,s2,s3)]
!!!URL-info: https://wiki.ccarh.org/wiki/MuseData:_Antonio_Vivaldi#Op._1:_Suonate_da_camera_a_tr.C3.A8.2C_due_violini_e_violone_o_cembalo Information about Vivaldi Op. 1 on the CCARH wiki
!!!URL-pdf: https://pdf.musedata.org/vivaldi-op01-no11.pdf#page=3 MuseData edition
!!!URL-pdf: https://s9.imslp.org/files/imglnks/usimg/1/18/IMSLP280399-PMLP10351-Vivaldi_Sonatas_Op_1_-_Violino_Primo.pdf#page=18 Violino primo part, Amsterdam: Estienne Roger, n.d.(ca.1723). Plate 363.
!!!URL-pdf: https://s9.imslp.org/files/imglnks/usimg/d/d5/IMSLP280400-PMLP10351-Vivaldi_Sonatas_Op_1_-_Violino_Secondo.pdf#page=15 Violino secondo part, Amsterdam: Estienne Roger, n.d.(ca.1723). Plate 363.
!!!URL-pdf: https://s9.imslp.org/files/imglnks/usimg/8/89/IMSLP280401-PMLP10351-Vivaldi_Sonatas_Op_1_-_Organo_e_Violoncello.pdf#page=15 Organo e Violoncello parts, Amsterdam: Estienne Roger, n.d.(ca.1723). Plate 363.
!!!URL-youtube: https://www.youtube.com/watch?v=P5HHPe_W6Uo&t=4386s L'Arte dell'Arco
!!!title: @{OTL}, mov. @{OMV}
!!!filter-vcross: vcross
!!!mei: scoreDef@tempo.dist="4"
!!!EEV: 2024/05/11
!!!source-file: https://bitbucket.org/musedata/vivaldi/src/master/roger/op1/no11/stage2/02/01
!!!source-file: https://bitbucket.org/musedata/vivaldi/src/master/roger/op1/no11/stage2/02/02
!!!source-file: https://bitbucket.org/musedata/vivaldi/src/master/roger/op1/no11/stage2/02/03
!!!source-file: https://bitbucket.org/musedata/vivaldi/src/master/roger/op1/no11/stage2/02/04
